X:1
T:Title
%%score { ( 1 3 ) | ( 2 4 ) }
L:1/8
M:3/4
K:Eb
V:1 treble nm="Grand Piano"
V:3 treble 
V:2 bass 
V:4 bass 
V:1
 z2 z[Q:1/4=100] E EG | B3 G [DF]E | E3 E Ac | [Ece]3 [Ece] [EBd][EAc] |[M:3/8] [EGB]3 | %5
 [B,EG][EAc][EGB] |[M:3/4] [DFA]3 [B,DF] [B,GB][B,FA] | [B,EG]3 [G,E] [A,EF][B,EG] | %8
 [CFB][CFA] [B,EG]2 [A,DF]2 |[M:3/8] [G,E]3 |[M:4/4] z2 z A- A4 | z2 z B- B4 | z2 z B- B4 | %13
 z2 z G- G4 | z2 z A- A4 |[M:17/16] z/ z/ z/ z/ z e/-e/-e/-e/-e/-e/-e/-e-<e |[M:4/4] z8 | %17
[M:11/16] z/ z/ z/ z/ z E/-E-<E- | E/-E/-E-<E z/ z/ z/ z |] %19
V:2
 z2 z [E,G,] [E,G,][E,B,E] | [E,G,E]3 [E,B,E] [B,,A,][E,G,] | %2
 [E,G,]3[K:treble] [G,_D] [A,CE][A,EA] | A,3 A,[K:bass] A,A, |[M:3/8] E,3 | E,E,E, | %6
[M:3/4] B,,3 B,, B,,B,, | E,3 E, E,E, | A,,A,, B,,2 B,,2 |[M:3/8] E,3 | %10
[M:4/4][K:treble] z2 z F- F4[K:bass] | z2 z G- G4[K:bass] | z2 z D- D4 | z2 z[K:bass] E- E4 | %14
 z2 z F- F4[K:bass] |[M:17/16][K:treble] GAGG[K:bass][C,G,][C,G,][C,E,][=B,,_G,]3/2 |[M:4/4] z8 | %17
[M:11/16] z/ z/ z/ z/ z E,/-E,-<E,- | E,/-E,/-E,-<E, z/ z/ z/ z |] %19
V:3
 x6 | x6 | x6 | x6 |[M:3/8] x3 | x3 |[M:3/4] x6 | x6 | x6 |[M:3/8] x3 |[M:4/4] Be .d2 B,DCB, | %11
 Ad .c2 B,DCB, | GG .G2 B,B,B,B, | FB .A2 B,DCB, | Be .d2 B,DCB, |[M:17/16] BcB z EEEE3/2 | %16
[M:4/4] E[A,EF][=A,E_G][B,E=G]- [B,EG]2 [CDA][B,EG]- |[M:11/16] [B,EG][A,DF]-<[A,DF]G,B,C/- | %18
 C/=B,_B,3/2 z/ z/ z/ z |] %19
V:4
 x6 | x6 | x3[K:treble] x3 | x4[K:bass] x2 |[M:3/8] x3 | x3 |[M:3/4] x6 | x6 | x6 |[M:3/8] x3 | %10
[M:4/4][K:treble] GG .G2 B,,[K:bass]B,,B,,B,, | FB .A2 E,[K:bass]E,E,E, | EE .E2 B,,B,,B,,B,, | %13
 DD .F2[K:bass] E,E,E,E, | GG .G2 B,,[K:bass]B,,B,,B,, |[M:17/16][K:treble] x4[K:bass] x9/2 | %16
[M:4/4] [=B,,_G,]B,,B,,_B,,- B,,2 B,,B,,- |[M:11/16] B,,B,,-<B,, z G,A,/- | %18
 A,/A,G,3/2 z/ z/ z/ z |] %19

